assets/svg/icon_search_anyone.svg

<svg width="24" height="24" viewBox="0 0 24 24" fill="none" xmlns="http://www.w3.org/2000/svg">
<path d="M16.7992 9.6C18.1247 9.6 19.1992 8.70457 19.1992 7.6C19.1992 6.49543 18.1247 5.6 16.7992 5.6M7.19922 9.6C5.87374 9.6 4.79922 8.70457 4.79922 7.6C4.79922 6.49543 5.87374 5.6 7.19922 5.6M18.3992 17.6C19.8026 17.2922 20.7992 16.5129 20.7992 15.6C20.7992 14.6871 19.8026 13.9078 18.3992 13.6M5.59922 17.6C4.19582 17.2922 3.19922 16.5129 3.19922 15.6C3.19922 14.6871 4.19582 13.9078 5.59922 13.6M15.1992 7.2C15.1992 8.96731 13.7665 10.4 11.9992 10.4C10.2319 10.4 8.79922 8.96731 8.79922 7.2C8.79922 5.43269 10.2319 4 11.9992 4C13.7665 4 15.1992 5.43269 15.1992 7.2ZM16.7992 16C16.7992 17.7673 14.6502 19.2 11.9992 19.2C9.34825 19.2 7.19922 17.7673 7.19922 16C7.19922 14.2327 9.34825 12.8 11.9992 12.8C14.6502 12.8 16.7992 14.2327 16.7992 16Z" stroke="#494949" stroke-width="1.2" stroke-linecap="round"/>
</svg>

<svg xmlns="http://www.w3.org/2000/svg" width="24" height="24" fill="none"><path stroke="#494949" stroke-linecap="round" stroke-width="1.2" d="M16.8 9.6c1.325 0 2.4-.895 2.4-2s-1.075-2-2.4-2m-9.6 4c-1.326 0-2.4-.895-2.4-2s1.074-2 2.4-2m11.2 12c1.403-.308 2.4-1.087 2.4-2s-.997-1.692-2.4-2m-12.8 4c-1.404-.308-2.4-1.087-2.4-2s.996-1.692 2.4-2m9.6-6.4a3.2 3.2 0 1 1-6.4 0 3.2 3.2 0 0 1 6.4 0Zm1.6 8.8c0 1.767-2.15 3.2-4.8 3.2-2.652 0-4.8-1.433-4.8-3.2s2.148-3.2 4.8-3.2c2.65 0 4.8 1.433 4.8 3.2Z"/></svg>
